!!!!SEGMENT: pl-wnifc--13846--041_anonim--piesni-polskie-i-ruskie-ludu-galicyjskiego-41-nie-siadaj-nie-gadaj-nie-umizgaj-mi-sie.krn
!!!kernsource:
!!!cenid: 18xx:3263
!!!COM: Anonim
!!!COM-rismid: pe30004985
!!!CDT:
!!!CNT:
!!!GTL: PieÅ›ni polskie i ruskie ludu galicyjskiego
!!!OTL: 41. Nie siadaj nie gadaj nie umizgaj mi siÄ™
!!!PDT: 1833
!!!AGN:
!!!SMS-siglum: PL-Wnifc
!!!SMS-shelfmark: 13846
!!!SMS-shelfwork: 041 G
!!!SMS-variant:
!!!SMS-altvar:
!!!NIFC-rismid: 1001036925
!!!URL-scan: http://repozytorium.nifc.pl/skany/pl-wnifc-nut--13846
!!!ONB-nifc:
!!!OMD: Krakowiak
!!!AIN: 1 piano 1 vox
!!!key: A
**kern	**kern	**kern	**text
*part2	*part2	*part1	*part1
*staff3	*staff2	*staff1	*staff1
*I"Fortepian	*I"Fortepian	*I"G³os	*
*Ipiano	*Ipiano	*Ivox	*
*ICklav	*ICklav	*ICvox	*
*IGacmp	*IGacmp	*IGsolo	*
*clefF4	*clefG2	*clefG2	*
*k[f#c#g#]	*k[f#c#g#]	*k[f#c#g#]	*
*A:	*A:	*A:	*
*M2/4	*M2/4	*M2/4	*
=1	=1	=1	=1
!	!	!LO:TX:a:t=D.b.&#1041;.\n55.	!
8AA/L	8a\L 8cc#\	8cc#\	Nie
8A\	8b\J 8dd\	8dd\	sia-
8AA/	8.cc#\L 8.ee\	(8.ee\L	-daj
8A\J	.	.	.
.	16b#X\Jk 16dd#X\	16dd#X\Jk)	.
=2	=2	=2	=2
8AA/L	8cc#\ 8ee\	8ee\	nie
8A/ 8c#/	4cc#\ 4ee\	4ee\	ga-
8AA/	.	.	.
8A/J 8c#/	16cc#\LL 16ee\	16ee\LL	-daj
.	16b#X\JJ 16dd#X\	16dd#X\JJ	.
!!LO:LB:g=original
=3	=3	=3	=3
8AA\L	8cc#\L 8ee\	8ee\	nie
8A\ 8c#\	8cc#\J 8ee\	8ee\	u-
8AA\	8.dd#X\L 8.ff#X\	(8.ff#\L	-mi-
8A\J 8c#\	.	.	.
.	16cc#\Jk 16ee\	16ee\Jk)	.
=4	=4	=4	=4
!LO:TX:t=P:problem=mixed beam	!	!	!
8EE/L	(16cc#\LL 16ee\	(16ee\LL	-zgaj
.	16b\JJ) 16dd\	16dd\JJ)	.
8G#\ 8e\	4b\ 4dd\	4dd\	mi
8E\	.	.	.
8G#\J 8e\	(16b\LL 16dd\	(16dd\LL	siê,
.	16a\JJ) 16cc#\	16cc#\JJ)	.
=5	=5	=5	=5
8E\L	8g#\L 8b\	8b\	ja
8e\	8a\J 8cc#\	8cc#\	two-
8E\	4b\ 4dd\	4dd\	-j±
8G#\J 8e\	.	.	.
!!LO:LB:g=original
=6	=6	=6	=6
8E\L	8b\ 8dd\	8dd\	nie
8G#\ 8e\	4b\ 4dd\	4dd\	bê-
8E\	.	.	.
8G#\J 8e\	(16b\LL 16dd\	(16dd\LL	-dê
.	16a#X\JJ) 16cc#\	16cc#\JJ)	.
=7	=7	=7	=7
8E\L	8b\ 8dd\	8dd\	nie
8G#\ 8e\	(16b\LL 16dd\	(16dd\LL	spo-
.	16dd\JJ) 16ff#\	16ff#\JJ)	.
8E\	(8.cc#\L 8.ee\	(8.ee\L	-dzie-
8G#\J 8e\	.	.	.
.	16b\Jk) 16dd\	16dd\Jk)	.
=8	=8	=8	=8
8AA/L	(16b\LL 16dd\	(16dd\LL	-waj
.	16a\JJ) 16cc#\	16cc#\JJ)	.
8F#\ 8A\	4a\ 4cc#\	4cc#\	miê
8AA/	.	.	.
8F#\J 8A\	(16b\LL	(16b\LL	siê.
.	16a\JJ)	16a/JJ)	.
!!LO:LB:g=original
==	==	==	==
*-	*-	*-	*-
!!!system-decoration: s1,{(s2,s3)}
!!!RDF**kern: < = below
!!!RDF**kern: > = above
!!!ENC: Marta Chmielewska
!!!END: 2021-11-10
